X:1
T:The Half Has Never Been Told
T:The Half Has Never Been Told
T:Ralph Erskine Hudson
T:Frances Ridley Havergal, 1878
T:Public Domain Courtesy of the Cyber Hymnal™
C:Ralph Erskine Hudson
Z:Public Domain
Z:Courtesy of the Cyber Hymnal™
%%score ( 1 2 ) ( 3 4 )
L:1/8
Q:1/4=110
M:4/4
K:C
V:1 treble 
V:2 treble 
V:3 bass 
V:4 bass 
V:1
 C2 | [CE]3 [DF] [EG][EG][FA][Fc] | [Ec]6 [Ec]2 | [Ec]3 [Ac] [GB]2 [^FA]2 | G4 z2 C2 | %5
w: 1.~I|know I love Thee bet- ter,|Lord Than|an- y earth- ly|joy, For|
w: 2.~I|know that Thou art near- er|still Than|an- y earth- ly|throng. And|
w: 3.~Thou|hast put glad- ness in my|heart; Then|well may I be|glad! With-|
w: 4.~O|Sav- ior, pre- cious Sav- ior|mine! What|will Thy pre- sence|be If|
 [CE]3 [DF] [EG][EG][FA][Fc] | [Ec]6 [Ec]2 | [Gd]3 G [FB]2 (AG) | [Ec]6 ||"^Refrain" [EG]2 | %10
w: Thou hast giv- en me the|peace Which|no- thing can de- *|stroy.||
w: sweet- er is the thought of|Thee Than|an- y love- ly *|song.|The|
w: out the se- cret of Thy|love I|could not but be *|sad.||
w: such a life of joy can|crown Our|walk on earth with *|Thee?||
 [Ge]3 [Ec] [Fd][Fc][Fc][FA] | G6 [EG]2 | [FB]3 [FB] [FA]2 [FG]2 | [Ec]6 [EG]2 | %14
w: ||||
w: half has nev- er yet been|told, Of|love so full and|free; The|
w: ||||
w: ||||
 [Ge]3 [Ec] [Fd][Fc][Fc][FA] | G6 [EG]2 | [FB]3 [FB] [FA]2 [FG]2"^riten." | c6 |] %18
w: ||||
w: half has nev- er yet been|told, The|blood— it cleans- eth|me.|
w: ||||
w: ||||
V:2
 C2 | x8 | x8 | x8 | G4 C2 x2 | x8 | x8 | x3 G x F2 x | x6 || x2 | x8 | (E2 D>D E2) x2 | x8 | x8 | %14
 x8 | (E2 D>D E2) x2 | x8 | (E2 FF3/4 E2) x/4 |] %18
V:3
 [C,E,]2 | [C,G,]3 [C,G,] [C,G,][C,C][F,C][F,A,] | [C,G,]6 [C,G,]2 | [C,G,]3 [C,E] [D,D]2 [D,C]2 | %4
w: ~|~ ~ ~ ~ ~ ~|~ ~|~ ~ ~ ~|
 [G,B,]4 z2 [C,E,]2 | [C,G,]3 [C,G,] [C,G,][C,C][F,C][F,A,] | [C,G,]6 [C,G,]2 | %7
w: ~ ~|~ ~ ~ ~ ~ ~|~ ~|
 [G,B,]3 [G,B,] [G,D]2 (CB,) | [C,C]6 || [C,C]2 | [C,C]3 [C,G,] [F,A,][F,A,][F,A,][F,C] | %11
w: ~ ~ ~ ~ *|~|~|~ ~ ~ ~ ~ ~|
 [C,C]2 [G,B,]>[G,B,] [C,C]2 [C,C]2 | [G,D]3 [G,D] [G,C]2 [G,B,]2 | [C,C]6 [C,C]2 | %14
w: ~ yet been told, ~|~ ~ ~ ~|~ ~|
 [C,C]3 [C,G,] [F,A,][F,A,][F,A,][F,C] | [C,C]2 [G,B,]>[G,B,] [C,C]2 [C,C]2 | %16
w: ~ ~ ~ ~ ~ ~|~ yet been told, ~|
 [G,D]3 [G,D] [G,C]2 [G,B,]2 | C2 A,>A, G,2 |] %18
w: ~ ~ ~ ~|~ cleans- eth me|
V:4
 x2 | x8 | x8 | x8 | x8 | x8 | x8 | x6 G,2 | x6 || x2 | x8 | x8 | x8 | x8 | x8 | x8 | x8 | C,6 |] %18

